assets/img/common/checkbox-checked.svg

<svg fill="none" height="14" viewBox="0 0 20 14" width="20" xmlns="http://www.w3.org/2000/svg"><path clip-rule="evenodd" d="m19.9903.857785c.0744.546145-.2874 1.052135-.8081 1.130155-1.4394.21569-2.8927 1.01098-4.3039 2.16384-1.4051 1.14792-2.7095 2.60183-3.8478 4.04062-1.04496 1.32091-1.93048 2.6037-2.6193 3.6016-.06067.0879-.11981.1735-.17739.2568-.34755.5027-.65717.9461-.89832 1.2472-.11337.1415-.2561.309-.40978.4346-.06932.0567-.2184.1709-.42565.23-.2527.072-.66034.0683-.98296-.2701-.34835-.3653-.6535-.8371-.91977-1.2487l-.02286-.0354c-.28439-.4396-.55921-.8644-.89024-1.2664-.64261-.7805-1.48009-1.45437-2.866425-1.6621-.520692-.07802-.8824966-.58401-.80811191-1.13016.07438471-.54615.55678991-.92564 1.07748691-.84762 1.94695.29174 3.17316 1.28295 4.03859 2.334.40458.49138.73332.99968 1.00527 1.42028.00984.0152.01961.0303.0293.0453.03941.0609.07724.1192.11367.175.12256-.1729.26146-.3726.41784-.5988.0577-.0834.11731-.1698.1788-.2589.68681-.99507 1.60699-2.32827 2.69406-3.70237 1.18319-1.49555 2.58699-3.06964 4.14319-4.34101 1.5501-1.26641 3.3111-2.281676 5.2049-2.565453.5207-.0780211 1.0031.30147 1.0775.847618z" fill="#3e765e" fill-rule="evenodd"/></svg>

<svg width="20" height="14" viewBox="0 0 20 14" fill="none" xmlns="http://www.w3.org/2000/svg">
  <path fill-rule="evenodd" clip-rule="evenodd"
    d="M19.9903 0.857785C20.0647 1.40393 19.7029 1.90992 19.1822 1.98794C17.7428 2.20363 16.2895 2.99892 14.8783 4.15178C13.4732 5.2997 12.1688 6.75361 11.0305 8.1924C9.98554 9.51331 9.10002 10.7961 8.4112 11.794C8.35053 11.8819 8.29139 11.9675 8.23381 12.0508C7.88626 12.5535 7.57664 12.9969 7.33549 13.298C7.22212 13.4395 7.07939 13.607 6.92571 13.7326C6.85639 13.7893 6.70731 13.9035 6.50006 13.9626C6.24736 14.0346 5.83972 14.0309 5.5171 13.6925C5.16875 13.3272 4.8636 12.8554 4.59733 12.4438L4.57447 12.4084C4.29008 11.9688 4.01526 11.544 3.68423 11.142C3.04162 10.3615 2.20414 9.68763 0.817805 9.4799C0.297113 9.40188 -0.0646916 8.89589 0.00969309 8.34974C0.0840778 7.80359 0.566483 7.4241 1.08718 7.50212C3.03413 7.79386 4.26034 8.78507 5.12577 9.83612C5.53035 10.3275 5.85909 10.8358 6.13104 11.2564C6.14088 11.2716 6.15065 11.2867 6.16034 11.3017C6.19975 11.3626 6.23758 11.4209 6.27401 11.4767C6.39657 11.3038 6.53547 11.1041 6.69185 10.8779C6.74955 10.7945 6.80916 10.7081 6.87065 10.619C7.55746 9.62393 8.47764 8.29073 9.56471 6.91663C10.7479 5.42108 12.1517 3.84699 13.7079 2.57562C15.258 1.30921 17.019 0.293944 18.9128 0.010167C19.4335 -0.0678541 19.9159 0.311637 19.9903 0.857785Z"
    fill="#3E765E" />
</svg>
